remix/Map/lifebuoy-fill.svg

<svg viewBox="0 0 24 24" fill="currentColor" xmlns="http://www.w3.org/2000/svg"><path d="M12 2C17.5228 2 22 6.47715 22 12C22 17.5228 17.5228 22 12 22C6.47715 22 2 17.5228 2 12C2 6.47715 6.47715 2 12 2ZM7.19709 14.682L5.02243 16.8555C5.52665 17.5788 6.14045 18.2199 6.83975 18.7549L7.14462 18.9777L9.31803 16.8029C8.51078 16.3512 7.82909 15.7018 7.33848 14.9203L7.19709 14.682ZM16.8029 14.682C16.3512 15.4892 15.7018 16.1709 14.9203 16.6615L14.682 16.8029L16.8555 18.9776C17.5787 18.4734 18.2198 17.8596 18.7549 17.1604L18.9776 16.8555L16.8029 14.682ZM12 8C9.79086 8 8 9.79086 8 12C8 14.2091 9.79086 16 12 16C14.2091 16 16 14.2091 16 12C16 9.79086 14.2091 8 12 8ZM7.14462 5.02232C6.42133 5.52656 5.78012 6.14039 5.24506 6.83973L5.02232 7.14462L7.19709 9.31803C7.64883 8.51078 8.2982 7.82909 9.07969 7.33848L9.31803 7.19709L7.14462 5.02232ZM16.8555 5.02243L14.682 7.19709C15.4892 7.64883 16.1709 8.2982 16.6615 9.07969L16.8029 9.31803L18.9777 7.14462C18.4735 6.42137 17.8597 5.7802 17.1604 5.24516L16.8555 5.02243Z"/></svg>

<svg viewBox="0 0 24 24" xmlns="http://www.w3.org/2000/svg"><path fill="none" d="M0 0h24v24H0Z"/><path d="M12 2c5.523 0 10 4.477 10 10s-4.477 10-10 10C6.477 22 2 17.523 2 12 2 6.477 6.477 2 12 2ZM7.19 14.682l-2.175 2.17v0c.5.72 1.11 1.36 1.81 1.89l.3.22 2.17-2.18v0c-.81-.46-1.49-1.1-1.98-1.89l-.14-.24Zm9.6 0v0c-.46.8-1.1 1.48-1.89 1.98l-.24.14 2.17 2.17v0c.72-.51 1.36-1.12 1.89-1.82l.22-.31 -2.18-2.18ZM11.98 8v0c-2.21 0-4 1.79-4 4 0 2.2 1.79 4 4 4v0c2.2 0 4-1.8 4-4 0-2.21-1.8-4-4-4ZM7.125 5.02V5.01c-.73.5-1.37 1.11-1.9 1.81l-.23.3L7.17 9.302h0c.45-.81 1.09-1.49 1.88-1.98l.23-.14L7.1 5Zm9.71 0L14.662 7.19V7.19c.8.45 1.48 1.09 1.98 1.88l.14.23 2.17-2.173V7.13c-.51-.73-1.12-1.37-1.82-1.9l-.31-.23Z"/></svg>
